svgs/google_classroom.svg

<?xml version="1.0" encoding="UTF-8" standalone="no"?><svg xmlns:android="http://schemas.android.com/apk/res/android" height="24" width="24" xmlns="http://www.w3.org/2000/svg">
  <path d="m3,5v14a1,1 45,0 0,1 1h16a1,1 135,0 0,1 -1V5A1,1 45,0 0,20 4H4A1,1 135,0 0,3 5Z" fill="#000000" fill-opacity="0.0" stroke="#000000" stroke-linecap="butt" stroke-linejoin="miter" stroke-width="2"/>
  <path d="M14,18h4v2h-4z" fill="#000000" stroke="#00000000" stroke-width="2"/>
  <path d="m12,12c0.8288,0 1.5,-0.6712 1.5,-1.5 0,-0.8288 -0.6712,-1.5 -1.5,-1.5 -0.8288,0 -1.5,0.6712 -1.5,1.5 0,0.8288 0.6712,1.5 1.5,1.5zM12,12.75c-1.0013,0 -3,0.5025 -3,1.5L9,15h6v-0.75c0,-0.9975 -1.9987,-1.5 -3,-1.5z" fill="#000000" stroke-width="0.375"/>
  <path d="M15.75,10.5C15.1284,10.5 14.625,11.0034 14.625,11.625C14.625,12.2466 15.1284,12.75 15.75,12.75C16.3716,12.75 16.875,12.2466 16.875,11.625C16.875,11.0034 16.3716,10.5 15.75,10.5zM15.75,13.3125C15.5794,13.3125 15.3699,13.3323 15.1484,13.3711C15.3508,13.6064 15.5,13.9079 15.5,14.25L15.5,15L18,15L18,14.4375C18,13.6894 16.5009,13.3125 15.75,13.3125zM14.0195,13.748C13.7132,13.9243 13.5,14.1551 13.5,14.4375L13.5,14.5L14.5,14.5L14.5,14.25C14.5,14.1676 14.4679,14.0883 14.332,13.9629C14.2558,13.8925 14.1469,13.8191 14.0195,13.748z" fill="#000000" stroke-width="0.28125"/>
  <path d="M8.25,10.5C7.6284,10.5 7.125,11.0034 7.125,11.625C7.125,12.2466 7.6284,12.75 8.25,12.75C8.8716,12.75 9.375,12.2466 9.375,11.625C9.375,11.0034 8.8716,10.5 8.25,10.5zM8.25,13.3125C7.4991,13.3125 6,13.6894 6,14.4375L6,15L8.5,15L8.5,14.25C8.5,13.9079 8.6492,13.6064 8.8516,13.3711C8.6301,13.3323 8.4206,13.3125 8.25,13.3125zM9.9805,13.748C9.8531,13.8191 9.7442,13.8925 9.668,13.9629C9.5321,14.0883 9.5,14.1676 9.5,14.25L9.5,14.5L10.5,14.5L10.5,14.4375C10.5,14.1551 10.2868,13.9243 9.9805,13.748z" fill="#000000" stroke-width="0.28125"/>
</svg>

<svg width="24" height="24" viewBox="0 0 24 24" fill="none" xmlns="http://www.w3.org/2000/svg"><path style="opacity:1;fill:none;stroke:#000;stroke-width:2;stroke-linecap:butt;stroke-linejoin:miter;stroke-miterlimit:4;stroke-dasharray:none;stroke-opacity:1" d="M3 5v14a1 1 45 0 0 1 1h16a1 1 135 0 0 1-1V5a1 1 45 0 0-1-1H4a1 1 135 0 0-1 1Z"/><path style="opacity:1;fill:#000;fill-opacity:1;stroke:none;stroke-width:2;stroke-miterlimit:4;stroke-dasharray:none" d="M14 18h4v2h-4z"/><path d="M12 12a1.5 1.5 0 1 0 0-3 1.5 1.5 0 0 0 0 3zm0 .75c-1.001 0-3 .502-3 1.5V15h6v-.75c0-.998-1.999-1.5-3-1.5z" style="fill:#000;stroke-width:.375"/><path style="fill:#000;stroke-width:.28125" d="M15.75 10.5a1.125 1.125 0 1 0 0 2.25 1.125 1.125 0 0 0 0-2.25zm0 2.813c-.17 0-.38.02-.602.058.203.235.352.537.352.879V15H18v-.563c0-.748-1.5-1.124-2.25-1.124zm-1.73.435c-.307.176-.52.407-.52.69v.062h1v-.25c0-.082-.032-.162-.168-.287a1.68 1.68 0 0 0-.312-.215zM8.25 10.5a1.125 1.125 0 1 0 0 2.25 1.125 1.125 0 0 0 0-2.25zm0 2.813c-.75 0-2.25.376-2.25 1.124V15h2.5v-.75c0-.342.15-.644.352-.879a3.603 3.603 0 0 0-.602-.059zm1.73.435a1.68 1.68 0 0 0-.312.215c-.136.125-.168.205-.168.287v.25h1v-.063c0-.282-.213-.513-.52-.689z"/></svg>
